X: 2
T: Tommy's Tarbukas
R: reel
M: 4/4
L: 1/8
K: Emin
(3FGA|:B2 ABGEEG | FDAD BDAD | B2AB GEEG | FDAF GEGA| | B2 AB GEEG | FDAD BDAD | B2GB FDDF |1 EeBA GEGA :|2 EeBA GEED||: B, EGE CEAG| Fadc BgdB | B,EGE CEAG | FdAF GEED | B, EGEC EAG | Fadc BgdB| dBGc AFDC|1 B,E ^DE GEGA:|2 B,E^DEGEE2 |


Tune 140	Setting 12762

